public/library/orbital-text-dark.svg

<svg width="100%" height="100%" viewBox="0 0 112 26" fill="none" xmlns="http://www.w3.org/2000/svg">
<path fill-rule="evenodd" clip-rule="evenodd" d="M13.0338 21.4631C17.72 21.4631 21.5189 17.674 21.5189 13C21.5189 8.32599 17.72 4.53694 13.0338 4.53694C8.34763 4.53694 4.54872 8.32599 4.54872 13C4.54872 17.674 8.34763 21.4631 13.0338 21.4631ZM13.0338 26C20.2322 26 26.0677 20.1797 26.0677 13C26.0677 5.82033 20.2322 3.80092e-05 13.0338 3.80092e-05C5.83545 3.80092e-05 0 5.82033 0 13C0 20.1797 5.83545 26 13.0338 26ZM50.7319 25.9651C48.2126 25.9651 46.4281 24.8832 45.3784 23.208H45.3084V25.4416H40.7247V0.488594H45.4834V9.702H45.5883C46.5681 8.20133 48.1076 7.04966 50.5919 7.04966C55.1057 7.04966 58.3248 10.9235 58.3248 16.5074C58.3248 22.3006 55.2456 25.9651 50.7319 25.9651ZM49.6822 21.9865C52.1315 21.9865 53.4961 19.9624 53.4961 16.5074C53.4961 13.1919 52.1665 10.8886 49.5072 10.8886C46.4981 10.8886 45.3784 13.2966 45.3784 16.6121C45.3784 19.8926 47.0229 21.9865 49.6822 21.9865ZM98.5079 25.4416V0.488594H103.267V25.4416H98.5079ZM91.4588 25.4415C91.1789 25.0925 91.0039 24.255 90.8989 23.4523H90.8289C89.9192 24.8134 88.6246 25.8603 85.5454 25.8603C81.8715 25.8603 79.2822 23.9409 79.2822 20.3811C79.2822 16.4375 82.5013 15.1812 86.4902 14.6228C89.4643 14.204 90.8289 13.9597 90.8289 12.5986C90.8289 11.3073 89.8142 10.4698 87.8198 10.4698C85.5804 10.4698 84.4957 11.2724 84.3558 12.9825H80.122C80.2619 9.84157 82.6063 7.08452 87.8548 7.08452C93.2433 7.08452 95.4127 9.49257 95.4127 13.6805V22.7892C95.4127 24.1503 95.6226 24.953 96.0425 25.267V25.4415H91.4588ZM86.7001 22.5449C89.4294 22.5449 90.9339 20.8697 90.9339 19.1248V16.4375C90.1546 16.8909 88.9836 17.164 87.8683 17.4241L87.7212 17.4584C87.684 17.4671 87.6469 17.4758 87.6099 17.4845C85.1256 18.0429 83.9009 18.6013 83.9009 20.2764C83.9009 21.9516 85.0206 22.5449 86.7001 22.5449ZM67.3186 7.53832V10.6793H69.8029V21.1839C69.8029 24.5692 72.3572 25.4765 74.6665 25.4765C76.556 25.4765 77.6407 25.4067 77.6407 25.4067V21.9168C77.6407 21.9168 76.8359 21.9517 76.2411 21.9517C75.1914 21.9517 74.4566 21.498 74.4566 20.1719V10.6793H77.5357V7.53832H74.4566V1.95443H69.8029V7.53832H67.3186ZM33.0414 10.4V7.53828H28.4576V25.4416H33.2163V16.7168C33.2163 12.9477 35.4557 11.3074 38.5698 11.6215H38.6748V7.46848C38.3948 7.36379 38.0799 7.32889 37.5551 7.32889C35.4557 7.32889 34.231 8.37587 33.1463 10.4H33.0414ZM60.5433 25.4416V7.53831H65.302V25.4416H60.5433Z" fill="currentcolor"/>
<path d="M112 22.8833C112 24.4793 110.703 25.7732 109.103 25.7732C107.502 25.7732 106.205 24.4793 106.205 22.8833C106.205 21.2872 107.502 19.9933 109.103 19.9933C110.703 19.9933 112 21.2872 112 22.8833Z" fill="#4EB1BA"/>
<path d="M65.6635 2.73371C65.6635 4.2435 64.4364 5.46743 62.9227 5.46743C61.4089 5.46743 60.1818 4.2435 60.1818 2.73371C60.1818 1.22393 61.4089 0 62.9227 0C64.4364 0 65.6635 1.22393 65.6635 2.73371Z" fill="currentcolor"/>
</svg>

<svg xmlns="http://www.w3.org/2000/svg" fill="none" viewBox="0 0 112 26"><path fill="currentcolor" fill-rule="evenodd" d="M13.034 21.463c4.686 0 8.485-3.789 8.485-8.463s-3.799-8.463-8.485-8.463S4.549 8.326 4.549 13s3.799 8.463 8.485 8.463m0 4.537c7.198 0 13.034-5.82 13.034-13S20.232 0 13.034 0 0 5.82 0 13s5.835 13 13.034 13m37.698-.035c-2.52 0-4.304-1.082-5.354-2.757h-.07v2.234h-4.583V.489h4.758v9.213h.105c.98-1.5 2.52-2.652 5.004-2.652 4.514 0 7.733 3.874 7.733 9.457 0 5.794-3.08 9.458-7.593 9.458m-1.05-3.979c2.45 0 3.814-2.024 3.814-5.479 0-3.315-1.33-5.618-3.989-5.618-3.009 0-4.129 2.408-4.129 5.723 0 3.28 1.645 5.375 4.304 5.375m48.826 3.456V.489h4.759v24.953zm-7.05 0c-.28-.35-.454-1.187-.56-1.99h-.07c-.909 1.361-2.203 2.408-5.283 2.408-3.674 0-6.263-1.92-6.263-5.479 0-3.943 3.22-5.2 7.208-5.758 2.974-.419 4.339-.663 4.339-2.024 0-1.292-1.015-2.13-3.01-2.13-2.239 0-3.323.803-3.463 2.514h-4.234c.14-3.141 2.484-5.898 7.733-5.898 5.388 0 7.558 2.408 7.558 6.596v9.108c0 1.361.21 2.164.63 2.478v.175zM86.7 22.545c2.73 0 4.234-1.675 4.234-3.42v-2.687c-.78.453-1.95.726-3.066.986l-.147.034-.111.027c-2.484.558-3.71 1.116-3.71 2.791 0 1.676 1.12 2.269 2.8 2.269M67.32 7.538v3.141h2.484v10.505c0 3.385 2.554 4.293 4.864 4.293 1.889 0 2.974-.07 2.974-.07v-3.49s-.805.035-1.4.035c-1.05 0-1.784-.454-1.784-1.78v-9.493h3.079V7.54h-3.08V1.953h-4.653v5.584zM33.04 10.4V7.538h-4.583v17.904h4.758v-8.725c0-3.77 2.24-5.41 5.354-5.095h.105V7.467c-.28-.104-.595-.14-1.12-.14-2.1 0-3.324 1.048-4.409 3.072zm27.502 15.042V7.538h4.759v17.904z" clip-rule="evenodd"/><path fill="#4eb1ba" d="M112 22.883a2.893 2.893 0 0 1-2.897 2.89 2.894 2.894 0 0 1-2.898-2.89 2.894 2.894 0 0 1 2.898-2.89c1.6 0 2.897 1.294 2.897 2.89"/><path fill="currentcolor" d="M65.664 2.734a2.737 2.737 0 0 1-2.741 2.733 2.737 2.737 0 0 1-2.741-2.733A2.737 2.737 0 0 1 62.922 0a2.737 2.737 0 0 1 2.742 2.734"/></svg>
